X:1
T:Down by the Sally Gardens
L:1/8
M:4/4
I:linebreak $
K:C
V:1 treble 
V:1
 G2 | c2 ec d2 B2 | c3 B G2 E2 | F2 GE C2 C2 | C4 EF | G2 AB c2 e2 | d4 B2 G2 | A2 cA G2 E2 | %8
 D6 EF | G2 AB c2 e2 |$ d3 c B2 G2 | A2 cA AGGE | D6 G2 | c2 ec d2 B2 | c3 B G2 E2 | F2 GE C2 C2 | %16
 C6 || %17
